demos/KANBAN/public/icons/Sales.svg

<svg width="25" height="23" viewBox="0 0 25 23" fill="none" xmlns="http://www.w3.org/2000/svg">
<path d="M16.1193 4.60477C16.7298 4.60477 17.3155 4.36225 17.7474 3.93048C18.1792 3.49868 18.4217 2.91294 18.4217 2.30238C18.4217 1.69165 18.1791 1.10611 17.7474 0.674287C17.3156 0.242485 16.7298 0 16.1193 0C15.5085 0 14.923 0.242514 14.4912 0.674287C14.0594 1.10609 13.8167 1.69159 13.8167 2.30238C13.8167 2.91294 14.0594 3.49866 14.4912 3.93048C14.923 4.36228 15.5085 4.60477 16.1193 4.60477ZM16.1193 1.31556C16.3808 1.31556 16.6318 1.4195 16.817 1.60466C17.0019 1.78958 17.1059 2.04059 17.1059 2.30238C17.1059 2.56393 17.0019 2.81494 16.817 3.0001C16.6318 3.18502 16.3808 3.28919 16.1193 3.28919C15.8575 3.28919 15.6065 3.18503 15.4213 3.0001C15.2364 2.81495 15.1324 2.56394 15.1324 2.30238C15.1324 2.04059 15.2364 1.78958 15.4213 1.60466C15.6065 1.4195 15.8575 1.31556 16.1193 1.31556Z" fill="#629FF4"/>
<path d="M19.7373 6.90712C19.7373 7.51785 19.9798 8.10339 20.4116 8.53522C20.8434 8.96702 21.4291 9.2095 22.0397 9.2095C22.6504 9.2095 23.236 8.96699 23.6678 8.53522C24.0996 8.10341 24.3423 7.51791 24.3423 6.90712C24.3423 6.29656 24.0996 5.71085 23.6678 5.27902C23.236 4.84722 22.6505 4.60474 22.0397 4.60474C21.4291 4.60474 20.8434 4.84725 20.4116 5.27902C19.9798 5.71082 19.7373 6.29656 19.7373 6.90712ZM23.0265 6.90712C23.0265 7.1689 22.9226 7.41991 22.7376 7.60484C22.5525 7.78999 22.3015 7.89393 22.0397 7.89393C21.7781 7.89393 21.5271 7.79 21.342 7.60484C21.157 7.41992 21.0531 7.16891 21.0531 6.90712C21.0531 6.64556 21.157 6.39456 21.342 6.2094C21.5271 6.02447 21.7781 5.92031 22.0397 5.92031C22.3015 5.92031 22.5525 6.02447 22.7376 6.2094C22.9226 6.39455 23.0265 6.64556 23.0265 6.90712Z" fill="#629FF4"/>
<path d="M15.7281 8.91647C15.8682 9.02063 16.0445 9.06446 16.2172 9.03853C16.39 9.0126 16.5453 8.91899 16.649 8.77835L22.2406 1.21318V1.21341C22.4567 0.920876 22.395 0.50858 22.1025 0.292433C21.8099 0.0760737 21.3977 0.138022 21.1815 0.430556L15.5899 7.99572V7.99549C15.4858 8.13591 15.4419 8.31189 15.4679 8.48465C15.4938 8.65742 15.5874 8.81297 15.728 8.91645L15.7281 8.91647Z" fill="#629FF4"/>
<path d="M5.59378 5.59155C4.65977 5.59155 0.00219727 5.687 0.00219727 7.56519C0.00219727 9.44339 4.65977 9.53883 5.59378 9.53883C6.5278 9.53883 11.1854 9.44339 11.1854 7.56519C11.1856 5.687 6.52804 5.59155 5.59378 5.59155ZM5.59378 8.22297C3.39671 8.22297 1.97554 7.84463 1.46254 7.56519C1.9758 7.28551 3.39671 6.90718 5.59378 6.90718C7.79085 6.90718 9.21202 7.28552 9.72502 7.56496C9.212 7.84464 7.79109 8.22297 5.59378 8.22297Z" fill="#629FF4"/>
<path d="M10.5276 9.04514C10.2018 9.04078 9.92188 9.27595 9.86978 9.59762C9.58023 9.87386 8.07717 10.3607 5.59376 10.3607C3.11059 10.3607 1.59743 9.86743 1.31797 9.59762C1.28883 9.23442 0.97083 8.96345 0.607385 8.99235C0.244187 9.02149 -0.0267855 9.33949 0.00211247 9.70293C0.00211247 11.5811 4.65968 11.6766 5.5937 11.6766C6.52772 11.6766 11.1853 11.5811 11.1853 9.70293H11.1855C11.1855 9.52833 11.1162 9.36107 10.9928 9.23763C10.8694 9.11442 10.7021 9.04514 10.5275 9.04514H10.5276Z" fill="#629FF4"/>
<path d="M10.5276 11.3476C10.2018 11.3435 9.92188 11.5784 9.86978 11.9001C9.58023 12.1763 8.07717 12.6632 5.59376 12.6632C3.11059 12.6632 1.59743 12.1699 1.31797 11.9001C1.28883 11.5369 0.97083 11.2659 0.607385 11.2948C0.244187 11.324 -0.0267855 11.642 0.00211247 12.0054C0.00211247 13.8836 4.65968 13.9791 5.5937 13.9791C6.52772 13.9791 11.1853 13.8836 11.1853 12.0054H11.1855C11.1855 11.831 11.1162 11.6636 10.9928 11.5404C10.8694 11.4169 10.7021 11.3476 10.5275 11.3476H10.5276Z" fill="#629FF4"/>
<path d="M10.5276 13.6502C10.2018 13.646 9.92188 13.881 9.86978 14.2026C9.58023 14.4789 8.07717 14.9657 5.59376 14.9657C3.11059 14.9657 1.59743 14.4725 1.31797 14.2026C1.28883 13.8394 0.97083 13.5685 0.607385 13.5976C0.244187 13.6265 -0.0267855 13.9447 0.00211247 14.308C0.00211247 16.1861 4.65968 16.2816 5.5937 16.2816C6.52772 16.2816 11.1853 16.1861 11.1853 14.308H11.1855C11.1855 14.1336 11.1162 13.9661 10.9928 13.8429C10.8694 13.7194 10.7021 13.6502 10.5275 13.6502H10.5276Z" fill="#629FF4"/>
<path d="M10.5276 15.9524C10.2018 15.9483 9.92188 16.1832 9.86978 16.5051C9.58023 16.7814 8.07717 17.2682 5.59376 17.2682C3.11059 17.2682 1.59743 16.7747 1.31797 16.5051C1.28883 16.1417 0.97083 15.8707 0.607385 15.8999C0.244187 15.929 -0.0267855 16.247 0.00211247 16.6102C0.00211247 18.4884 4.65968 18.5838 5.5937 18.5838C6.52772 18.5838 11.1853 18.4884 11.1853 16.6102H11.1855C11.1855 16.4358 11.1162 16.2686 10.9928 16.1451C10.8694 16.0217 10.7021 15.9524 10.5275 15.9524H10.5276Z" fill="#629FF4"/>
<path d="M10.5276 18.2549C10.2018 18.2508 9.92188 18.4859 9.86978 18.8076C9.58023 19.0839 8.07717 19.5707 5.59376 19.5707C3.11059 19.5707 1.59743 19.0772 1.31797 18.8076C1.28883 18.4442 0.97083 18.1732 0.607385 18.2023C0.244187 18.2315 -0.0267855 18.5495 0.00211247 18.9129C0.00211247 20.7911 4.65968 20.8866 5.5937 20.8866C6.52772 20.8866 11.1853 20.7911 11.1853 18.9129H11.1855C11.1855 18.7383 11.1162 18.5711 10.9928 18.4476C10.8694 18.3242 10.7021 18.2549 10.5275 18.2549L10.5276 18.2549Z" fill="#629FF4"/>
<path d="M19.4084 15.7881C20.3424 15.7881 24.9999 15.6927 24.9999 13.8145C24.9999 11.9363 20.3424 11.8408 19.4084 11.8408C18.4743 11.8408 13.8168 11.9363 13.8168 13.8145C13.8165 15.6928 18.4741 15.7881 19.4084 15.7881ZM19.4084 13.1567C21.6054 13.1567 23.0266 13.535 23.5396 13.8145C23.0263 14.0941 21.6054 14.4725 19.4084 14.4725C17.2113 14.4725 15.7901 14.0941 15.2771 13.8147C15.7901 13.535 17.2111 13.1569 19.4084 13.1569V13.1567Z" fill="#629FF4"/>
<path d="M24.3422 15.2947C24.0162 15.2906 23.7366 15.5255 23.6842 15.8472C23.3947 16.1234 21.8916 16.6103 19.4082 16.6103C16.925 16.6103 15.4119 16.117 15.1324 15.8472C15.1033 15.484 14.7853 15.213 14.4218 15.2421C14.0586 15.271 13.7877 15.5893 13.8166 15.9525C13.8166 17.8307 18.4741 17.9261 19.4082 17.9261C20.3422 17.9261 24.9997 17.8307 24.9997 15.9525H25C25 15.7781 24.9307 15.6106 24.8072 15.4874C24.6838 15.364 24.5165 15.2947 24.3422 15.2947H24.3422Z" fill="#629FF4"/>
<path d="M24.3422 17.5972C24.0162 17.5931 23.7366 17.828 23.6842 18.1499C23.3947 18.4261 21.8916 18.913 19.4082 18.913C16.925 18.913 15.4119 18.4195 15.1324 18.1499C15.1033 17.7865 14.7853 17.5155 14.4218 17.5446C14.0586 17.5738 13.7877 17.8918 13.8166 18.255C13.8166 20.1332 18.4741 20.2286 19.4082 20.2286C20.3422 20.2286 24.9997 20.1332 24.9997 18.255H25C25 18.0806 24.9307 17.9133 24.8072 17.7899C24.6838 17.6665 24.5165 17.5972 24.3422 17.5972H24.3422Z" fill="#629FF4"/>
<path d="M24.3422 19.8997C24.0162 19.8955 23.7366 20.1307 23.6842 20.4524C23.3947 20.7286 21.8916 21.2155 19.4082 21.2155C16.925 21.2155 15.4119 20.722 15.1324 20.4524C15.1033 20.089 14.7853 19.818 14.4218 19.8471C14.0586 19.8763 13.7877 20.1943 13.8166 20.5577C13.8166 22.4359 18.4741 22.5313 19.4082 22.5313C20.3422 22.5313 24.9997 22.4359 24.9997 20.5577H25C25 20.3831 24.9307 20.2158 24.8072 20.0924C24.6838 19.969 24.5165 19.8997 24.3422 19.8997L24.3422 19.8997Z" fill="#629FF4"/>
</svg>

<svg xmlns="http://www.w3.org/2000/svg" width="25" height="23" fill="none"><path fill="#629FF4" d="M16.12 4.605a2.303 2.303 0 1 0 0-4.606 2.303 2.303 0 0 0 0 4.606Zm0-3.29a.987.987 0 1 1-.001 1.974.987.987 0 0 1 0-1.973ZM19.737 6.907a2.302 2.302 0 1 0 4.605 0 2.302 2.302 0 0 0-4.605 0Zm3.29 0a.986.986 0 1 1-1.973 0 .986.986 0 0 1 1.973 0ZM15.728 8.916a.657.657 0 0 0 .921-.138l5.592-7.565a.659.659 0 0 0-1.06-.782L15.59 7.996a.657.657 0 0 0 .138.92ZM5.594 5.592c-.934 0-5.592.095-5.592 1.973 0 1.878 4.658 1.974 5.592 1.974.934 0 5.591-.096 5.591-1.974S6.528 5.592 5.594 5.592Zm0 2.631c-2.197 0-3.618-.378-4.131-.658.513-.28 1.934-.658 4.13-.658 2.198 0 3.619.379 4.132.658-.513.28-1.934.658-4.131.658Z"/><path fill="#629FF4" d="M10.528 9.045a.658.658 0 0 0-.658.553c-.29.276-1.793.763-4.276.763-2.483 0-3.997-.494-4.276-.763a.66.66 0 0 0-1.316.105c0 1.878 4.658 1.974 5.592 1.974.934 0 5.591-.096 5.591-1.974a.658.658 0 0 0-.658-.658Z"/><path fill="#629FF4" d="M10.528 11.348a.658.658 0 0 0-.658.552c-.29.276-1.793.763-4.276.763-2.483 0-3.997-.493-4.276-.763a.66.66 0 0 0-1.316.105c0 1.879 4.658 1.974 5.592 1.974.934 0 5.591-.095 5.591-1.974a.657.657 0 0 0-.658-.657Z"/><path fill="#629FF4" d="M10.528 13.65a.658.658 0 0 0-.658.553c-.29.276-1.793.763-4.276.763-2.483 0-3.997-.493-4.276-.763a.66.66 0 0 0-1.316.105c0 1.878 4.658 1.974 5.592 1.974.934 0 5.591-.096 5.591-1.974a.657.657 0 0 0-.658-.658Z"/><path fill="#629FF4" d="M10.528 15.952a.658.658 0 0 0-.658.553c-.29.276-1.793.763-4.276.763-2.483 0-3.997-.493-4.276-.763a.66.66 0 0 0-1.316.105c0 1.878 4.658 1.974 5.592 1.974.934 0 5.591-.096 5.591-1.974a.658.658 0 0 0-.658-.658Z"/><path fill="#629FF4" d="M10.528 18.255a.658.658 0 0 0-.658.553c-.29.276-1.793.763-4.276.763-2.483 0-3.997-.494-4.276-.763a.66.66 0 1 0-1.316.105c0 1.878 4.658 1.974 5.592 1.974.934 0 5.591-.096 5.591-1.974a.658.658 0 0 0-.658-.658ZM19.408 15.788c.934 0 5.592-.095 5.592-1.973 0-1.879-4.658-1.974-5.592-1.974-.934 0-5.591.095-5.591 1.974 0 1.878 4.657 1.973 5.591 1.973Zm0-2.631c2.197 0 3.619.378 4.132.658-.514.28-1.935.658-4.132.658-2.197 0-3.618-.379-4.13-.658.512-.28 1.933-.658 4.13-.658Z"/><path fill="#629FF4" d="M24.342 15.295a.658.658 0 0 0-.658.552c-.29.276-1.792.763-4.276.763-2.483 0-3.996-.493-4.276-.763a.66.66 0 0 0-1.315.106c0 1.878 4.657 1.973 5.591 1.973.934 0 5.592-.095 5.592-1.973a.657.657 0 0 0-.658-.658Z"/><path fill="#629FF4" d="M24.342 17.597a.658.658 0 0 0-.658.553c-.29.276-1.792.763-4.276.763-2.483 0-3.996-.494-4.276-.763a.66.66 0 0 0-1.315.105c0 1.878 4.657 1.974 5.591 1.974.934 0 5.592-.096 5.592-1.974a.657.657 0 0 0-.658-.658Z"/><path fill="#629FF4" d="M24.342 19.9a.658.658 0 0 0-.658.552c-.29.277-1.792.763-4.276.763-2.483 0-3.996-.493-4.276-.763a.66.66 0 1 0-1.315.106c0 1.878 4.657 1.973 5.591 1.973.934 0 5.592-.095 5.592-1.973a.658.658 0 0 0-.658-.658Z"/></svg>
